X: 2078
T: NORTH OF THE GRAMPIANS
C:
Q: "Strathspey."
R: Strathspey.
%R: strathspey
B: James Kerr "Merry Melodies" v.2 p.11 #78
Z: 2016 John Chambers <jc:trillian.mit.edu>
M: C
L: 1/8
K: C
uF |\
(E>F)(G>A) G<Ec2 | (E/F/G) G>uc (c<e)d2 |\
E>FG>A G<EE>uG | vF>vDuB,>uG, (B,/C/D) F ::\
uf |\
ve>vc (e/f/g) e<cc>uf |
e<cc>uf (3efg (3fga |\
[1 ve>vc (e/f/g) e<cc>ue | vf>vduB>uG B/c/d f :|\
[2 (3gfe (3dcB (3cBA (3GFE | F>DB,>G, (B,/C/D)F |]
